<?xml version="1.0" encoding="UTF-8"?>
<map version="1.10" tiledversion="1.10.2" orientation="orthogonal" renderorder="right-down" width="32" height="32" tilewidth="32" tileheight="32" infinite="0" nextlayerid="6" nextobjectid="3">
 <editorsettings>
  <export target="../../Cpp/aula_sdl2/Debug/res/Maps/warrior_halls_1.json" format="json"/>
 </editorsettings>
 <properties>
  <property name="id" type="int" value="2"/>
 </properties>
 <tileset firstgid="1" source="../Tilesets/Gray_Block_Walls.tsx"/>
 <tileset firstgid="257" source="../Tilesets/Gray_Block_Floor.tsx"/>
 <tileset firstgid="289" source="../Tilesets/Adult_Ant_Aocoon_Prop.tsx"/>
 <tileset firstgid="545" source="../Tilesets/Statues.tsx"/>
 <layer id="1" name="Floor" width="32" height="32">
  <data encoding="csv">
196,196,196,196,196,196,196,196,196,196,196,196,196,196,196,196,196,196,196,196,196,196,196,196,196,196,196,196,196,196,196,196,
196,196,196,196,196,196,196,196,196,196,196,196,196,196,196,196,196,196,196,196,196,196,196,196,196,196,196,196,196,196,196,196,
196,196,196,196,196,196,196,196,196,196,196,196,196,196,196,196,196,196,196,196,196,196,196,196,196,196,196,196,196,196,196,196,
196,196,196,196,196,196,196,196,196,197,196,196,196,196,196,196,196,196,196,196,196,196,196,196,196,196,196,196,196,196,196,196,
196,196,196,196,196,196,199,196,196,196,196,196,196,200,196,196,196,196,196,196,199,196,196,196,196,196,196,196,196,196,196,196,
196,196,196,196,196,196,196,196,196,196,196,196,196,196,196,196,196,196,196,196,196,196,196,196,196,196,196,196,196,196,196,196,
196,196,196,196,196,196,196,196,196,196,196,196,196,196,196,196,196,199,196,196,196,196,196,196,196,196,196,196,196,196,196,196,
196,196,196,198,196,197,196,196,276,260,259,274,196,196,196,199,196,196,196,196,196,198,199,196,196,197,196,196,196,196,196,196,
196,196,196,196,196,196,196,196,260,275,274,273,196,196,198,197,196,196,196,198,196,196,196,196,197,196,196,196,200,196,199,196,
196,199,196,196,196,199,196,196,259,258,273,258,196,196,196,196,196,196,196,196,196,196,196,196,196,196,196,196,196,198,197,196,
196,196,196,196,196,196,196,196,259,274,276,273,196,196,196,196,196,196,196,196,196,196,196,196,196,196,196,196,196,196,196,196,
196,196,196,196,196,196,196,196,274,276,265,275,196,196,196,196,196,196,196,196,196,196,196,196,196,196,196,196,196,196,196,196,
258,275,275,274,258,259,276,274,275,275,274,273,276,259,275,276,274,260,259,274,258,275,276,276,273,275,260,276,275,275,273,274,
258,274,258,273,259,275,275,276,259,276,275,260,274,276,273,274,260,259,276,275,276,276,258,260,258,259,258,273,275,259,260,260,
258,276,260,273,273,276,273,273,260,274,265,276,259,276,258,273,259,273,273,258,276,274,275,258,259,275,260,258,273,274,273,276,
258,275,274,275,276,273,259,274,258,258,258,258,258,274,259,259,274,273,273,275,276,276,275,258,273,275,276,273,258,274,273,276,
196,196,196,196,196,196,196,196,273,275,276,273,196,196,196,196,196,196,196,196,196,196,196,196,196,196,196,196,196,196,196,196,
196,196,196,196,196,198,196,196,259,276,275,276,196,196,199,196,196,196,196,196,196,196,196,196,196,196,196,196,196,196,196,196,
196,196,200,199,196,196,196,196,275,274,276,258,196,196,196,196,196,196,199,196,200,199,197,196,196,196,196,196,196,196,196,196,
196,196,196,196,196,199,196,196,274,273,276,259,196,196,198,196,196,196,196,196,196,196,196,196,196,196,196,196,196,196,196,198,
196,196,196,196,196,196,196,196,273,276,259,273,196,196,196,196,196,196,196,196,196,196,198,196,196,196,196,196,196,196,196,197,
196,196,196,196,196,200,196,196,260,274,273,275,196,196,196,196,196,196,197,198,196,196,200,196,200,196,196,196,196,196,199,196,
196,196,196,196,196,196,196,196,196,196,196,196,196,196,196,196,196,196,196,198,199,196,196,196,196,196,196,196,196,196,196,196,
196,196,196,196,196,196,196,196,196,196,196,196,196,196,196,196,196,196,196,196,196,196,196,196,196,196,196,196,196,196,196,196,
196,196,196,196,196,196,196,196,196,196,196,196,196,196,196,196,196,196,196,196,196,196,196,196,196,196,196,196,196,196,196,196,
196,196,196,196,196,196,196,196,196,196,196,196,196,196,196,196,196,196,196,196,196,196,196,196,196,196,196,196,196,196,196,196,
196,196,196,196,196,196,196,196,196,196,196,196,196,196,196,196,196,196,196,196,196,196,196,196,196,196,196,196,196,196,196,196,
196,196,196,196,196,196,196,196,196,196,196,196,196,196,196,196,196,196,196,196,196,196,196,196,196,196,196,196,196,196,196,196,
196,196,196,196,196,196,196,196,196,196,196,196,196,196,196,196,196,196,196,196,196,196,196,196,196,196,196,196,196,196,196,196,
196,196,196,196,196,196,196,196,196,196,196,196,196,196,196,196,196,196,196,196,196,196,196,196,196,196,196,196,196,196,196,196,
196,196,196,196,196,196,196,196,196,196,196,196,196,196,196,196,196,196,196,196,196,196,196,196,196,196,196,196,196,196,196,196,
196,196,196,196,196,196,196,196,196,196,196,196,196,196,196,196,196,196,196,196,196,196,196,196,196,196,196,196,196,196,196,196
</data>
 </layer>
 <layer id="3" name="Walls" width="32" height="32">
  <data encoding="csv">
49,49,49,49,49,49,49,49,49,49,49,49,49,49,49,49,49,49,49,49,49,49,49,49,49,49,49,49,49,49,49,49,
49,49,49,49,49,49,49,49,49,49,49,49,49,49,49,49,49,49,49,49,49,49,49,49,49,49,49,49,49,49,49,49,
49,49,49,49,49,49,49,49,49,49,49,49,49,49,49,49,49,49,49,49,49,49,49,49,49,49,49,49,49,49,49,49,
49,49,49,49,49,49,49,49,49,49,49,49,49,49,49,49,49,49,49,49,49,49,49,49,49,49,49,49,49,49,49,49,
49,49,49,49,49,49,49,49,49,49,49,49,49,49,49,49,49,49,49,49,49,49,49,49,49,49,49,49,49,49,49,49,
49,49,49,49,49,49,49,49,65,5,3,66,49,49,49,49,49,49,49,49,49,49,49,49,49,49,49,49,49,49,49,49,
49,49,49,49,49,49,49,49,81,33,40,82,49,49,49,49,49,49,49,49,49,49,49,49,49,49,49,49,49,49,49,49,
49,49,49,49,49,49,49,49,97,49,49,98,49,49,49,49,49,49,49,49,49,49,49,49,49,49,49,49,49,49,49,49,
49,49,49,49,49,49,49,49,97,49,49,98,49,49,49,49,49,49,49,49,49,49,49,49,49,49,49,49,49,49,49,49,
49,49,49,49,49,49,49,49,97,49,49,98,49,49,49,49,49,49,49,49,49,49,49,49,49,49,49,49,49,49,49,49,
2,6,3,3,8,5,4,114,97,49,49,98,2,8,3,2,3,2,4,5,3,5,2,4,8,2,3,4,5,6,7,8,
36,34,35,40,38,36,38,38,97,49,49,98,40,34,40,38,33,38,38,40,38,40,38,34,33,38,34,35,33,34,38,35,
49,49,49,49,49,49,49,49,49,49,49,49,49,49,49,49,49,49,49,49,49,49,49,49,49,49,49,49,49,49,49,49,
49,49,49,49,49,49,49,49,49,49,49,49,49,49,49,49,49,49,49,49,49,49,49,49,49,49,49,49,49,49,49,49,
49,49,49,49,49,49,49,49,49,49,49,49,49,49,49,49,49,49,49,49,49,49,49,49,49,49,49,49,49,49,49,49,
49,49,49,49,49,49,49,49,49,49,49,49,49,49,49,49,49,49,49,49,49,49,49,49,49,49,49,49,49,49,49,49,
194,194,194,194,194,194,194,194,97,49,49,98,195,193,194,193,195,194,195,194,195,193,195,195,193,195,195,193,195,193,195,195,
49,49,49,49,49,49,49,49,97,49,49,98,49,49,49,49,49,49,49,49,49,49,49,49,49,49,49,49,49,49,49,49,
49,49,49,49,49,49,49,49,97,49,49,98,49,49,49,49,49,49,49,49,49,49,49,49,49,49,49,49,49,49,49,49,
49,49,49,49,49,49,49,49,97,49,49,98,49,49,49,49,49,49,49,49,49,49,49,49,49,49,49,49,49,49,49,49,
49,49,49,49,49,49,49,49,97,49,49,98,49,49,49,49,49,49,49,49,49,49,49,49,49,49,49,49,49,49,49,49,
49,49,49,49,49,49,49,49,97,49,49,98,49,49,49,49,49,49,49,49,49,49,49,49,49,49,49,49,49,49,49,49,
49,49,49,49,49,49,49,49,194,195,194,193,49,49,49,49,49,49,49,49,49,49,49,49,49,49,49,49,49,49,49,49,
49,49,49,49,49,49,49,49,49,49,49,49,49,49,49,49,49,49,49,49,49,49,49,49,49,49,49,49,49,49,49,49,
49,49,49,49,49,49,49,49,49,49,49,49,49,49,49,49,49,49,49,49,49,49,49,49,49,49,49,49,49,49,49,49,
49,49,49,49,49,49,49,49,49,49,49,49,49,49,49,49,49,49,49,49,49,49,49,49,49,49,49,49,49,49,49,49,
49,49,49,49,49,49,49,49,49,49,49,49,49,49,49,49,49,49,49,49,49,49,49,49,49,49,49,49,49,49,49,49,
49,49,49,49,49,49,49,49,49,49,49,49,49,49,49,49,49,49,49,49,49,49,49,49,49,49,49,49,49,49,49,49,
49,49,49,49,49,49,49,49,49,49,49,49,49,49,49,49,49,49,49,49,49,49,49,49,49,49,49,49,49,49,49,49,
49,49,49,49,49,49,49,49,49,49,49,49,49,49,49,49,49,49,49,49,49,49,49,49,49,49,49,49,49,49,49,49,
49,49,49,49,49,49,49,49,49,49,49,49,49,49,49,49,49,49,49,49,49,49,49,49,49,49,49,49,49,49,49,49,
49,49,49,49,49,49,49,49,49,49,49,49,49,49,49,49,49,49,49,49,49,49,49,49,49,49,49,49,49,49,49,49
</data>
 </layer>
 <layer id="4" name="Props1" width="32" height="32">
  <data encoding="csv">
545,545,545,545,545,545,545,545,545,545,545,545,545,545,545,545,545,545,545,545,545,545,545,545,545,545,545,545,545,545,545,545,
545,545,545,545,545,545,545,545,545,545,545,545,545,545,545,545,545,545,545,545,545,545,545,545,545,545,545,545,545,545,545,545,
545,545,545,545,545,545,545,545,545,545,545,545,545,545,545,545,545,545,545,545,545,545,545,545,545,545,545,545,545,545,545,545,
545,545,545,545,545,545,545,545,545,545,545,545,545,545,545,545,545,545,545,545,545,545,545,545,545,545,545,545,545,545,545,545,
545,545,545,545,545,545,545,545,545,545,545,545,545,545,545,545,545,545,545,545,545,545,545,545,545,545,545,545,545,545,545,545,
545,545,545,545,545,545,545,545,545,545,546,545,545,545,545,545,545,545,545,545,545,545,545,545,545,545,545,545,545,545,545,545,
545,545,545,545,545,545,545,545,545,545,554,545,545,545,545,545,545,545,545,545,545,545,545,545,545,545,545,545,545,545,545,545,
545,545,545,545,545,545,545,545,545,545,562,545,545,545,545,545,545,545,545,545,545,545,545,545,545,545,545,545,545,545,545,545,
545,545,545,545,545,545,545,545,545,545,573,545,545,545,545,545,545,545,545,545,545,545,545,545,545,545,545,545,545,545,545,545,
545,545,545,545,545,545,545,545,545,545,545,545,545,545,545,545,545,545,545,545,545,545,545,545,545,545,545,545,545,545,545,545,
545,545,545,556,577,578,579,556,545,545,545,545,545,556,545,545,545,556,545,545,545,556,545,545,545,556,545,545,545,556,545,545,
545,545,545,564,585,586,587,564,545,545,545,545,545,564,545,545,545,564,545,545,545,564,545,545,545,564,545,545,545,564,545,545,
545,545,545,580,593,594,595,580,545,545,545,545,545,580,545,545,545,580,545,545,545,580,545,545,545,580,545,545,545,580,545,545,
545,545,545,545,545,545,545,545,545,545,545,545,545,545,545,545,545,545,545,545,545,545,545,545,545,545,545,545,545,545,545,545,
545,545,545,545,545,545,545,545,545,545,545,545,545,545,545,545,545,545,545,545,545,545,545,545,545,545,545,545,545,545,545,545,
545,545,545,556,545,545,545,556,545,545,545,545,545,556,545,545,545,556,545,545,545,556,545,545,545,556,545,545,545,556,545,545,
545,545,545,545,545,545,545,545,545,545,545,545,545,545,545,545,545,545,545,545,545,545,545,545,545,545,545,545,545,545,545,545,
545,545,545,545,545,545,545,545,545,545,545,545,545,545,545,545,545,545,545,545,545,545,545,545,545,545,545,545,545,545,545,545,
545,545,545,545,545,545,545,545,545,547,545,545,545,545,545,545,545,545,545,545,545,545,545,545,545,545,545,545,545,545,545,545,
545,545,545,545,545,545,545,545,545,555,545,545,545,545,545,545,545,545,545,545,545,545,545,545,545,545,545,545,545,545,545,545,
545,545,545,545,545,545,545,545,545,563,545,545,545,545,545,545,545,545,545,545,545,545,545,545,545,545,545,545,545,545,545,545,
545,545,545,545,545,545,545,545,545,580,545,545,545,545,545,545,545,545,545,545,545,545,545,545,545,545,545,545,545,545,545,545,
545,545,545,545,545,545,545,545,545,545,545,545,545,545,545,545,545,545,545,545,545,545,545,545,545,545,545,545,545,545,545,545,
545,545,545,545,545,545,545,545,545,545,545,545,545,545,545,545,545,545,545,545,545,545,545,545,545,545,545,545,545,545,545,545,
545,545,545,545,545,545,545,545,545,545,545,545,545,545,545,545,545,545,545,545,545,545,545,545,545,545,545,545,545,545,545,545,
545,545,545,545,545,545,545,545,545,545,545,545,545,545,545,545,545,545,545,545,545,545,545,545,545,545,545,545,545,545,545,545,
545,545,545,545,545,545,545,545,545,545,545,545,545,545,545,545,545,545,545,545,545,545,545,545,545,545,545,545,545,545,545,545,
545,545,545,545,545,545,545,545,545,545,545,545,545,545,545,545,545,545,545,545,545,545,545,545,545,545,545,545,545,545,545,545,
545,545,545,545,545,545,545,545,545,545,545,545,545,545,545,545,545,545,545,545,545,545,545,545,545,545,545,545,545,545,545,545,
545,545,545,545,545,545,545,545,545,545,545,545,545,545,545,545,545,545,545,545,545,545,545,545,545,545,545,545,545,545,545,545,
545,545,545,545,545,545,545,545,545,545,545,545,545,545,545,545,545,545,545,545,545,545,545,545,545,545,545,545,545,545,545,545,
545,545,545,545,545,545,545,545,545,545,545,545,545,545,545,545,545,545,545,545,545,545,545,545,545,545,545,545,545,545,545,545
</data>
 </layer>
 <objectgroup id="2" name="Waypoints">
  <object id="1" x="1" y="384" width="32" height="128">
   <properties>
    <property name="nextMapFileName" value="warrior_birth.json"/>
    <property name="xDest" type="int" value="960"/>
    <property name="yDest" type="int" value="450"/>
   </properties>
  </object>
  <object id="2" x="992" y="384" width="32" height="128">
   <properties>
    <property name="nextMapFileName" value="warrior_halls_2.json"/>
    <property name="xDest" type="int" value="60"/>
    <property name="yDest" type="int" value="450"/>
   </properties>
  </object>
 </objectgroup>
</map>
