<?xml version="1.0" encoding="UTF-8"?>
<map version="1.10" tiledversion="1.10.2" orientation="orthogonal" renderorder="right-down" width="32" height="32" tilewidth="32" tileheight="32" infinite="0" nextlayerid="7" nextobjectid="4">
 <editorsettings>
  <export target="../../Cpp/aula_sdl2/Debug/res/Maps/warrior_birth_.json" format="json"/>
 </editorsettings>
 <properties>
  <property name="id" type="int" value="1"/>
 </properties>
 <tileset firstgid="1" source="../Tilesets/Brown_Block_Floor.tsx"/>
 <tileset firstgid="17" source="../Tilesets/Brown_Block_Walls.tsx"/>
 <tileset firstgid="145" source="../Tilesets/Adult_Ant_Aocoon_Prop.tsx"/>
 <tileset firstgid="401" source="../Tilesets/Statues.tsx"/>
 <tileset firstgid="529" source="../Tilesets/Gray_Block_Floor.tsx"/>
 <tileset firstgid="561" source="../Tilesets/Gray_Block_Walls.tsx"/>
 <layer id="1" name="Floor" width="32" height="32">
  <data encoding="csv">
756,756,756,756,756,756,756,756,756,756,756,756,756,756,756,756,756,756,756,756,756,756,756,756,756,756,756,756,756,756,756,756,
756,756,756,756,756,756,756,756,756,756,756,756,756,756,756,756,756,756,756,756,756,756,756,756,756,756,756,756,756,756,756,756,
756,756,756,756,756,756,756,756,756,756,756,756,756,756,756,756,756,756,756,756,756,756,756,756,756,756,756,756,756,756,756,756,
756,756,756,756,756,756,756,756,756,756,756,756,756,756,756,756,756,756,756,756,756,756,756,756,756,756,756,756,756,756,756,756,
756,756,756,756,756,756,756,756,756,756,756,756,756,756,756,756,756,756,756,756,756,756,756,756,756,756,756,756,756,756,756,756,
756,756,756,756,756,756,756,756,756,756,756,756,756,756,756,756,756,756,756,756,756,756,756,756,756,756,756,756,756,756,756,756,
756,756,756,756,756,756,756,756,756,756,756,756,756,756,756,757,756,756,757,756,756,756,756,756,756,756,756,756,756,756,756,756,
756,756,756,756,756,756,756,756,756,756,756,756,756,756,756,756,756,756,756,756,756,756,756,756,756,756,756,756,756,756,756,756,
756,756,756,756,756,756,756,756,756,756,756,756,756,756,756,756,756,756,756,756,756,756,756,756,756,756,756,756,756,756,756,756,
756,756,756,756,756,756,756,756,756,756,756,756,756,757,757,758,756,760,756,756,756,756,759,757,756,759,756,756,756,756,756,756,
756,756,756,756,756,756,756,756,756,756,756,756,756,760,756,532,530,537,530,538,530,530,756,756,756,756,756,756,756,756,756,757,
756,756,756,756,756,756,756,756,756,756,756,756,760,760,756,530,530,546,530,530,540,530,759,756,756,756,756,758,756,756,756,756,
756,756,756,756,756,756,756,756,756,756,759,757,757,756,756,530,530,532,530,531,530,530,530,530,530,530,530,530,530,548,530,530,
756,756,756,756,756,756,756,756,756,756,756,756,756,756,756,530,547,530,530,530,530,530,530,530,546,530,547,530,530,530,530,530,
756,756,756,756,756,756,756,756,756,756,756,756,756,756,756,530,531,530,530,530,530,530,548,530,530,530,530,530,530,530,530,530,
756,756,756,756,756,756,756,756,756,756,756,758,756,757,756,530,530,545,530,532,530,530,530,530,530,530,530,530,530,530,530,530,
756,756,756,756,756,756,756,756,756,756,756,757,756,760,756,530,530,530,530,530,530,530,756,756,756,756,756,756,756,756,756,756,
756,756,756,756,756,756,756,756,756,756,756,756,756,756,756,537,530,530,531,530,530,532,756,758,757,756,756,757,759,756,756,756,
756,756,756,756,756,756,756,756,756,756,756,756,756,756,756,756,756,756,756,756,756,756,757,756,756,756,756,756,756,756,756,756,
756,756,756,756,756,756,756,756,756,756,756,756,756,760,756,756,757,758,756,756,756,760,758,756,756,756,757,757,756,756,756,756,
756,756,756,756,756,756,756,756,756,756,756,756,756,760,756,756,756,756,756,756,756,756,756,756,756,757,759,756,756,756,756,756,
756,756,756,756,756,756,756,756,756,756,756,756,756,756,756,756,756,756,756,756,756,756,756,756,756,756,756,756,756,756,756,756,
756,756,756,756,756,756,756,756,756,756,756,756,756,756,756,756,759,760,759,757,759,756,756,756,756,756,756,756,756,756,756,756,
756,756,756,756,756,756,756,756,756,756,756,756,756,756,756,756,756,756,756,756,756,756,756,756,756,756,756,756,756,756,756,756,
756,756,756,756,756,756,756,756,756,756,756,756,756,756,756,756,756,756,756,756,756,756,756,756,756,756,756,756,756,756,756,756,
756,756,756,756,756,756,756,756,756,756,756,756,756,756,756,756,756,756,756,756,756,756,756,756,756,756,756,756,756,756,756,756,
756,756,756,756,756,756,756,756,756,756,756,756,756,756,756,756,756,756,756,756,756,756,756,756,756,756,756,756,756,756,756,756,
756,756,756,756,756,756,756,756,756,756,756,756,756,756,756,756,756,756,756,756,756,756,756,756,756,756,756,756,756,756,756,756,
756,756,756,756,756,756,756,756,756,756,756,756,756,756,756,756,756,756,756,756,756,756,756,756,756,756,756,756,756,756,756,756,
756,756,756,756,756,756,756,756,756,756,756,756,756,756,756,756,756,756,756,756,756,756,756,756,756,756,756,756,756,756,756,756,
756,756,756,756,756,756,756,756,756,756,756,756,756,756,756,756,756,756,756,756,756,756,756,756,756,756,756,756,756,756,756,756,
756,756,756,756,756,756,756,756,756,756,756,756,756,756,756,756,756,756,756,756,756,756,756,756,756,756,756,756,756,756,756,756
</data>
 </layer>
 <layer id="2" name="Walls" width="32" height="32">
  <data encoding="csv">
561,561,561,561,561,561,561,561,561,561,561,561,561,561,561,561,561,561,561,561,561,561,561,561,561,561,561,561,561,561,561,561,
561,561,561,561,561,561,561,561,561,561,561,561,561,561,561,561,561,561,561,561,561,561,561,561,561,561,561,561,561,561,561,561,
561,561,561,561,561,561,561,561,561,561,561,561,561,561,561,561,561,561,561,561,561,561,561,561,561,561,561,561,561,561,561,561,
561,561,561,561,561,561,561,561,561,561,561,561,561,561,561,561,561,561,561,561,561,561,561,561,561,561,561,561,561,561,561,561,
561,561,561,561,561,561,561,561,561,561,561,561,561,561,561,561,561,561,561,561,561,561,561,561,561,561,561,561,561,561,561,561,
561,561,561,561,561,561,561,561,561,561,561,561,561,561,561,561,561,561,561,561,561,561,561,561,561,561,561,561,561,561,561,561,
561,561,561,561,561,561,561,561,561,561,561,561,561,561,561,561,561,561,561,561,561,561,561,561,561,561,561,561,561,561,561,561,
561,561,561,561,561,561,561,561,561,561,561,561,561,561,561,561,561,561,561,561,561,561,561,561,561,561,561,561,561,561,561,561,
561,561,561,561,561,561,561,561,561,561,561,561,561,561,561,625,562,568,563,564,567,626,561,561,561,561,561,561,561,561,561,561,
561,561,561,561,561,561,561,561,561,561,561,561,561,561,561,641,593,593,596,596,594,642,561,561,561,561,561,561,561,561,561,561,
561,561,561,561,561,561,561,561,561,561,561,561,561,561,561,657,561,561,561,561,561,658,564,566,565,566,562,568,562,568,568,568,
561,561,561,561,561,561,561,561,561,561,561,561,561,561,561,657,561,561,561,561,561,725,594,595,595,596,593,596,593,595,593,596,
561,561,561,561,561,561,561,561,561,561,561,561,561,561,561,657,561,561,561,561,561,561,561,561,561,561,561,561,561,561,561,561,
561,561,561,561,561,561,561,561,561,561,561,561,561,561,561,657,561,561,561,561,561,561,561,561,561,561,561,561,561,561,561,561,
561,561,561,561,561,561,561,561,561,561,561,561,561,561,561,657,561,561,561,561,561,561,561,561,561,561,561,561,561,561,561,561,
561,561,561,561,561,561,561,561,561,561,561,561,561,561,561,657,561,561,561,561,561,561,561,561,561,561,561,561,561,561,561,561,
561,561,561,561,561,561,561,561,561,561,561,561,561,561,561,657,561,561,561,561,561,658,754,754,754,754,754,754,754,754,754,755,
561,561,561,561,561,561,561,561,561,561,561,561,561,561,561,657,561,561,561,561,561,658,561,561,561,561,561,561,561,561,561,561,
561,561,561,561,561,561,561,561,561,561,561,561,561,561,561,753,754,754,754,754,754,755,561,561,561,561,561,561,561,561,561,561,
561,561,561,561,561,561,561,561,561,561,561,561,561,561,561,561,561,561,561,561,561,561,561,561,561,561,561,561,561,561,561,561,
561,561,561,561,561,561,561,561,561,561,561,561,561,561,561,561,561,561,561,561,561,561,561,561,561,561,561,561,561,561,561,561,
561,561,561,561,561,561,561,561,561,561,561,561,561,561,561,561,561,561,561,561,561,561,561,561,561,561,561,561,561,561,561,561,
561,561,561,561,561,561,561,561,561,561,561,561,561,561,561,561,561,561,561,561,561,561,561,561,561,561,561,561,561,561,561,561,
561,561,561,561,561,561,561,561,561,561,561,561,561,561,561,561,561,561,561,561,561,561,561,561,561,561,561,561,561,561,561,561,
561,561,561,561,561,561,561,561,561,561,561,561,561,561,561,561,561,561,561,561,561,561,561,561,561,561,561,561,561,561,561,561,
561,561,561,561,561,561,561,561,561,561,561,561,561,561,561,561,561,561,561,561,561,561,561,561,561,561,561,561,561,561,561,561,
561,561,561,561,561,561,561,561,561,561,561,561,561,561,561,561,561,561,561,561,561,561,561,561,561,561,561,561,561,561,561,561,
561,561,561,561,561,561,561,561,561,561,561,561,561,561,561,561,561,561,561,561,561,561,561,561,561,561,561,561,561,561,561,561,
561,561,561,561,561,561,561,561,561,561,561,561,561,561,561,561,561,561,561,561,561,561,561,561,561,561,561,561,561,561,561,561,
561,561,561,561,561,561,561,561,561,561,561,561,561,561,561,561,561,561,561,561,561,561,561,561,561,561,561,561,561,561,561,561,
561,561,561,561,561,561,561,561,561,561,561,561,561,561,561,561,561,561,561,561,561,561,561,561,561,561,561,561,561,561,561,561,
561,561,561,561,561,561,561,561,561,561,561,561,561,561,561,561,561,561,561,561,561,561,561,561,561,561,561,561,561,561,561,561
</data>
 </layer>
 <layer id="3" name="Props1" width="32" height="32" visible="0">
  <data encoding="csv">
162,162,162,162,162,162,162,162,162,162,162,162,162,162,162,162,162,162,162,162,162,162,162,162,162,162,162,162,162,162,162,162,
162,162,162,162,162,162,162,162,162,162,162,162,162,162,162,162,162,162,162,162,162,162,162,162,162,162,162,162,162,162,162,162,
162,162,162,162,162,162,162,162,162,162,162,162,162,162,162,162,162,162,162,162,162,162,162,162,162,162,162,162,162,162,162,162,
162,162,162,162,162,162,162,162,162,162,162,162,162,162,162,162,162,162,162,162,162,162,162,162,162,162,162,162,162,162,162,162,
162,162,162,162,162,162,162,162,162,162,162,162,162,162,162,162,162,162,162,162,162,162,162,162,162,162,162,162,162,162,162,162,
162,162,162,162,162,162,162,162,162,162,162,162,162,162,162,162,162,162,162,162,162,162,162,162,162,162,162,162,162,162,162,162,
162,162,162,162,162,162,162,162,162,162,162,162,162,162,162,162,162,162,162,162,162,162,162,162,162,162,162,162,162,162,162,162,
162,162,162,162,162,162,162,162,162,162,162,162,162,162,162,162,162,162,162,162,162,162,162,162,162,162,162,162,162,162,162,162,
162,162,162,162,162,162,162,162,162,162,162,162,162,162,162,162,162,162,162,162,162,162,162,162,162,162,162,162,162,162,162,162,
162,162,162,162,162,162,162,162,162,162,162,162,162,162,162,147,148,162,162,162,179,180,162,162,162,162,162,162,162,162,162,162,
162,162,162,162,162,162,162,162,162,162,162,162,162,162,162,163,164,162,183,184,195,196,162,162,162,162,162,162,162,162,162,162,
162,162,162,162,162,162,162,162,162,162,162,162,162,162,162,162,211,212,199,200,162,162,162,162,162,162,162,162,162,162,162,162,
162,162,162,162,162,162,162,162,162,162,162,162,162,162,162,162,227,228,162,162,241,242,162,162,162,162,162,162,162,162,162,162,
162,162,162,162,162,162,162,162,162,162,162,162,162,162,162,162,215,216,162,162,257,258,162,162,162,162,162,162,162,162,162,162,
162,162,162,162,162,162,162,162,162,162,162,162,162,162,162,162,231,232,209,210,273,274,162,162,162,162,162,162,162,162,162,162,
162,162,162,162,162,162,162,162,162,162,162,162,162,162,162,162,162,162,225,226,162,162,162,162,162,162,162,162,162,162,162,162,
162,162,162,162,162,162,162,162,162,162,162,162,162,162,162,162,162,162,162,263,264,162,162,162,162,162,162,162,162,162,162,162,
162,162,162,162,162,162,162,162,162,162,162,162,162,162,162,162,213,214,162,279,280,162,162,162,162,162,162,162,162,162,162,162,
162,162,162,162,162,162,162,162,162,162,162,162,162,162,162,162,162,162,162,162,162,162,162,162,162,162,162,162,162,162,162,162,
162,162,162,162,162,162,162,162,162,162,162,162,162,162,162,162,162,162,162,162,162,162,162,162,162,162,162,162,162,162,162,162,
162,162,162,162,162,162,162,162,162,162,162,162,162,162,162,162,162,162,162,162,162,162,162,162,162,162,162,162,162,162,162,162,
162,162,162,162,162,162,162,162,162,162,162,162,162,162,162,162,162,162,162,162,162,162,162,162,162,162,162,162,162,162,162,162,
162,162,162,162,162,162,162,162,162,162,162,162,162,162,162,162,162,162,162,162,162,162,162,162,162,162,162,162,162,162,162,162,
162,162,162,162,162,162,162,162,162,162,162,162,162,162,162,162,162,162,162,162,162,162,162,162,162,162,162,162,162,162,162,162,
162,162,162,162,162,162,162,162,162,162,162,162,162,162,162,162,162,162,162,162,162,162,162,162,162,162,162,162,162,162,162,162,
162,162,162,162,162,162,162,162,162,162,162,162,162,162,162,162,162,162,162,162,162,162,162,162,162,162,162,162,162,162,162,162,
162,162,162,162,162,162,162,162,162,162,162,162,162,162,162,162,162,162,162,162,162,162,162,162,162,162,162,162,162,162,162,162,
162,162,162,162,162,162,162,162,162,162,162,162,162,162,162,162,162,162,162,162,162,162,162,162,162,162,162,162,162,162,162,162,
162,162,162,162,162,162,162,162,162,162,162,162,162,162,162,162,162,162,162,162,162,162,162,162,162,162,162,162,162,162,162,162,
162,162,162,162,162,162,162,162,162,162,162,162,162,162,162,162,162,162,162,162,162,162,162,162,162,162,162,162,162,162,162,162,
162,162,162,162,162,162,162,162,162,162,162,162,162,162,162,162,162,162,162,162,162,162,162,162,162,162,162,162,162,162,162,162,
162,162,162,162,162,162,162,162,162,162,162,162,162,162,162,162,162,162,162,162,162,162,162,162,162,162,162,162,162,162,162,162
</data>
 </layer>
 <layer id="4" name="Props2" width="32" height="32" visible="0">
  <data encoding="csv">
404,404,404,404,404,404,404,404,404,404,404,404,404,404,404,404,404,404,404,404,404,404,404,404,404,404,404,404,404,404,404,404,
404,404,404,404,404,404,404,404,404,404,404,404,404,404,404,404,404,404,404,404,404,404,404,404,404,404,404,404,404,404,404,404,
404,404,404,404,404,404,404,404,404,404,404,404,404,404,404,404,404,404,404,404,404,404,404,404,404,404,404,404,404,404,404,404,
404,404,404,404,404,404,404,404,404,404,404,404,404,404,404,404,404,404,404,404,404,404,404,404,404,404,404,404,404,404,404,404,
404,404,404,404,404,404,404,404,404,404,404,404,404,404,404,404,404,404,404,404,404,404,404,404,404,404,404,404,404,404,404,404,
404,404,404,404,404,404,404,404,404,404,404,404,404,404,404,404,404,404,404,404,404,404,404,404,404,404,404,404,404,404,404,404,
404,404,404,404,404,404,404,404,404,404,404,404,404,404,404,404,404,404,404,404,404,404,404,404,404,404,404,404,404,404,404,404,
404,404,404,404,404,404,404,404,404,404,404,404,404,404,404,404,404,404,404,404,404,404,404,404,404,404,404,404,404,404,404,404,
404,404,404,404,404,404,404,404,404,404,404,404,404,404,404,404,404,404,412,404,404,404,404,404,404,404,404,404,404,404,404,404,
404,404,404,404,404,404,404,404,404,404,404,404,404,404,404,404,149,150,428,211,212,404,404,404,404,404,404,404,404,404,404,404,
404,404,404,404,404,404,404,404,404,404,404,404,404,404,404,404,165,166,436,227,228,404,404,404,404,404,404,404,404,404,404,404,
404,404,404,404,404,404,404,404,404,404,404,404,404,404,404,404,404,404,209,210,404,441,442,443,404,404,404,404,404,404,404,404,
404,404,404,404,404,404,404,404,404,404,404,404,404,404,404,404,404,404,225,226,404,449,450,451,404,404,404,404,404,404,404,404,
404,404,404,404,404,404,404,404,404,404,404,404,404,404,404,404,404,404,404,404,404,404,404,404,404,404,404,404,404,404,404,404,
404,404,404,404,404,404,404,404,404,404,404,404,404,404,404,404,404,404,404,404,404,404,404,404,404,404,404,404,404,404,404,404,
404,404,404,404,404,404,404,404,404,404,404,404,404,404,404,404,183,184,404,404,404,441,442,443,404,404,404,404,404,404,404,404,
404,404,404,404,404,404,404,404,404,404,404,404,404,404,404,404,199,200,412,404,404,404,404,404,404,404,404,404,404,404,404,404,
404,404,404,404,404,404,404,404,404,404,404,404,404,404,404,404,404,404,420,404,404,404,404,404,404,404,404,404,404,404,404,404,
404,404,404,404,404,404,404,404,404,404,404,404,404,404,404,404,404,404,404,404,404,404,404,404,404,404,404,404,404,404,404,404,
404,404,404,404,404,404,404,404,404,404,404,404,404,404,404,404,404,404,404,404,404,404,404,404,404,404,404,404,404,404,404,404,
404,404,404,404,404,404,404,404,404,404,404,404,404,404,404,404,404,404,404,404,404,404,404,404,404,404,404,404,404,404,404,404,
404,404,404,404,404,404,404,404,404,404,404,404,404,404,404,404,404,404,404,404,404,404,404,404,404,404,404,404,404,404,404,404,
404,404,404,404,404,404,404,404,404,404,404,404,404,404,404,404,404,404,404,404,404,404,404,404,404,404,404,404,404,404,404,404,
404,404,404,404,404,404,404,404,404,404,404,404,404,404,404,404,404,404,404,404,404,404,404,404,404,404,404,404,404,404,404,404,
404,404,404,404,404,404,404,404,404,404,404,404,404,404,404,404,404,404,404,404,404,404,404,404,404,404,404,404,404,404,404,404,
404,404,404,404,404,404,404,404,404,404,404,404,404,404,404,404,404,404,404,404,404,404,404,404,404,404,404,404,404,404,404,404,
404,404,404,404,404,404,404,404,404,404,404,404,404,404,404,404,404,404,404,404,404,404,404,404,404,404,404,404,404,404,404,404,
404,404,404,404,404,404,404,404,404,404,404,404,404,404,404,404,404,404,404,404,404,404,404,404,404,404,404,404,404,404,404,404,
404,404,404,404,404,404,404,404,404,404,404,404,404,404,404,404,404,404,404,404,404,404,404,404,404,404,404,404,404,404,404,404,
404,404,404,404,404,404,404,404,404,404,404,404,404,404,404,404,404,404,404,404,404,404,404,404,404,404,404,404,404,404,404,404,
404,404,404,404,404,404,404,404,404,404,404,404,404,404,404,404,404,404,404,404,404,404,404,404,404,404,404,404,404,404,404,404,
404,404,404,404,404,404,404,404,404,404,404,404,404,404,404,404,404,404,404,404,404,404,404,404,404,404,404,404,404,404,404,404
</data>
 </layer>
 <objectgroup id="5" name="Waypoints">
  <object id="1" x="992" y="384" width="32" height="128">
   <properties>
    <property name="nextMapFileName" value="warrior_halls_1.json"/>
    <property name="xDest" type="int" value="64"/>
    <property name="yDest" type="int" value="450"/>
   </properties>
  </object>
 </objectgroup>
 <objectgroup id="6" name="Items">
  <object id="3" x="816" y="408">
   <properties>
    <property name="isPicked" type="bool" value="false"/>
    <property name="itemId" type="int" value="0"/>
   </properties>
   <point/>
  </object>
 </objectgroup>
</map>
