<?xml version="1.0" encoding="UTF-8"?>
<map version="1.10" tiledversion="1.10.2" orientation="orthogonal" renderorder="right-down" width="32" height="32" tilewidth="32" tileheight="32" infinite="0" nextlayerid="5" nextobjectid="3">
 <tileset firstgid="1" source="../Tilesets/Dirt_Roads.tsx"/>
 <tileset firstgid="65" source="../Tilesets/Gray_Block_Floor.tsx"/>
 <tileset firstgid="97" source="../Tilesets/Gray_Block_Walls.tsx"/>
 <tileset firstgid="353" source="../Tilesets/Statues.tsx"/>
 <layer id="1" name="Floor" width="32" height="32">
  <data encoding="csv">
292,292,294,292,292,292,292,292,292,292,292,292,292,73,83,81,82,76,296,292,292,292,292,292,292,292,292,292,292,292,292,292,
292,292,292,292,292,292,292,295,292,293,292,292,292,83,75,81,81,81,294,292,292,292,295,292,292,292,292,292,292,292,292,292,
292,292,292,292,292,292,292,292,292,292,292,292,292,66,81,75,66,82,292,292,292,292,292,292,292,292,292,292,292,292,292,292,
296,292,292,292,292,292,292,292,292,292,292,292,292,82,66,73,84,84,292,292,292,292,292,292,292,292,292,292,292,292,294,292,
292,292,67,73,73,68,83,73,83,84,73,84,66,67,83,84,68,82,73,66,82,68,84,81,83,73,73,83,81,68,292,292,
292,292,82,67,84,81,67,81,84,83,83,82,84,84,68,68,66,83,68,82,81,83,81,84,68,67,83,83,66,84,292,292,
295,292,68,84,81,68,82,81,67,67,83,84,82,68,82,66,66,81,82,82,83,83,82,83,66,82,68,66,67,83,292,292,
292,292,84,83,84,83,82,84,66,83,82,81,73,81,82,73,84,84,82,84,83,84,82,68,67,68,81,66,73,68,292,294,
292,293,81,68,67,67,84,68,67,83,66,83,84,82,66,83,82,82,84,81,66,74,73,82,82,67,83,68,81,84,295,296,
292,292,84,83,81,67,76,84,73,66,66,66,67,66,81,68,67,81,68,84,84,81,66,84,82,82,83,66,68,83,296,292,
293,292,73,82,66,81,81,84,83,83,83,73,66,67,66,67,81,66,73,84,83,67,83,66,82,83,67,82,67,82,294,292,
292,296,82,73,68,68,84,81,68,83,73,66,66,66,84,67,83,68,84,81,68,73,73,83,73,81,67,83,67,81,292,292,
292,292,82,66,75,84,82,84,84,81,82,73,66,84,74,73,83,81,82,84,81,73,81,82,67,67,68,73,67,68,292,292,
296,292,68,66,81,73,81,83,67,68,82,81,84,81,84,66,84,68,67,73,66,84,84,83,73,83,68,67,82,83,293,292,
292,292,82,66,84,81,66,73,84,83,82,67,66,81,83,66,67,84,67,74,84,84,67,66,68,84,84,84,83,68,295,292,
292,292,82,73,73,67,73,84,67,68,66,68,83,66,83,66,84,68,84,73,84,81,66,81,75,67,83,81,73,83,294,292,
292,292,68,84,84,81,74,67,73,83,68,73,66,84,82,84,84,83,66,84,68,66,68,68,83,81,84,83,67,84,292,292,
292,292,81,83,73,83,82,81,67,73,84,67,82,68,73,83,83,84,84,73,67,83,68,67,84,74,83,84,68,82,292,292,
292,293,66,84,67,82,66,84,73,66,83,84,84,83,73,68,75,83,66,66,73,73,84,81,82,68,66,68,83,82,292,295,
292,292,67,66,73,67,67,66,73,82,82,84,66,68,82,67,67,84,66,68,81,67,73,84,73,67,83,82,66,84,292,292,
292,292,68,82,68,82,66,73,81,84,81,83,66,66,73,81,82,83,68,82,73,66,67,67,83,73,67,66,81,84,292,292,
292,292,292,292,292,292,292,292,292,292,292,292,292,66,67,68,83,83,292,292,292,292,292,292,292,292,292,292,292,292,292,292,
292,292,292,292,292,292,296,296,294,292,292,292,292,81,84,83,81,68,292,292,292,292,293,296,296,294,292,292,292,292,292,292,
292,292,292,294,292,292,292,292,292,292,294,296,292,66,82,67,83,84,292,292,296,293,294,292,295,295,292,292,296,292,296,292,
292,292,292,292,292,292,292,295,296,292,292,296,292,67,75,83,82,81,292,292,292,292,292,292,292,296,295,294,292,292,292,292,
292,292,292,292,292,292,292,292,292,294,292,295,292,81,84,67,68,67,292,292,292,292,292,292,292,292,292,292,292,292,292,292,
292,292,292,292,292,292,292,292,296,295,292,296,292,84,84,67,84,83,67,67,68,73,68,66,83,82,67,66,68,82,67,67,
292,292,292,292,292,292,292,292,292,292,292,293,292,83,84,84,81,68,83,84,83,82,68,84,66,81,83,84,76,84,73,84,
292,292,292,292,292,292,292,292,292,292,292,292,292,67,73,75,81,83,83,81,76,66,66,81,66,66,67,67,68,73,81,82,
292,292,292,292,292,292,292,292,292,292,295,292,292,292,292,292,292,292,292,292,292,292,292,292,292,292,292,68,66,73,81,82,
292,292,292,292,292,292,292,292,292,292,292,292,292,292,292,295,293,294,292,292,292,292,292,292,292,292,292,68,68,84,76,83,
292,292,292,292,292,292,292,292,292,292,292,292,296,294,292,294,292,292,292,292,292,292,292,292,296,292,292,67,66,82,84,67
</data>
 </layer>
 <layer id="2" name="Walls" width="32" height="32">
  <data encoding="csv">
97,97,97,97,97,97,97,97,97,97,97,97,257,132,130,113,115,114,258,97,97,97,97,97,97,97,97,97,97,97,97,97,
97,97,97,97,97,97,97,97,97,97,97,97,257,129,130,114,116,115,258,97,97,97,97,97,97,97,97,97,97,97,97,97,
97,97,161,99,99,103,103,100,100,102,101,103,100,122,97,97,97,124,99,99,98,98,102,98,102,101,101,98,99,162,97,97,
97,97,177,130,131,131,115,131,132,115,114,115,114,138,97,97,97,140,129,130,131,116,115,115,115,116,130,130,115,178,97,97,
97,97,193,97,97,97,97,97,97,97,97,97,97,97,97,97,97,97,97,97,97,97,97,97,97,97,97,97,97,194,97,97,
97,97,193,97,97,97,97,97,97,97,97,97,97,97,97,97,97,97,97,97,97,97,97,97,97,97,97,97,97,194,97,97,
97,97,193,97,97,97,97,97,97,97,97,97,97,97,97,97,97,97,97,97,97,97,97,97,97,97,97,97,97,194,97,97,
97,97,193,97,97,97,97,97,97,97,97,97,97,97,97,97,97,97,97,97,97,97,97,97,97,97,97,97,97,194,97,97,
97,97,193,97,97,97,97,97,97,97,97,97,97,97,97,97,97,97,97,97,97,97,97,97,97,97,97,97,97,194,97,97,
97,97,193,97,97,97,97,97,97,97,97,97,97,97,97,97,97,97,97,97,97,97,97,97,97,97,97,97,97,194,97,97,
97,97,193,97,97,97,97,97,97,97,97,97,97,97,97,97,97,97,97,97,97,97,97,97,97,97,97,97,97,194,97,97,
97,97,193,97,97,97,97,97,97,97,97,97,97,97,97,97,97,97,97,97,97,97,97,97,97,97,97,97,97,194,97,97,
97,97,193,97,97,97,97,97,97,97,97,97,97,97,97,97,97,97,97,97,97,97,97,97,97,97,97,97,97,194,97,97,
97,97,193,97,97,97,97,97,97,97,97,97,97,97,97,97,97,97,97,97,97,97,97,97,97,97,97,97,97,194,97,97,
97,97,193,97,97,97,97,97,97,97,97,97,97,97,97,97,97,97,97,97,97,97,97,97,97,97,97,97,97,194,97,97,
97,97,193,97,97,97,97,97,97,97,97,97,97,97,97,97,97,97,97,97,97,97,97,97,97,97,97,97,97,194,97,97,
97,97,193,97,97,97,97,97,97,97,97,97,97,97,97,97,97,97,97,97,97,97,97,97,97,97,97,97,97,194,97,97,
97,97,193,97,97,97,97,97,97,97,97,97,97,97,97,97,97,97,97,97,97,97,97,97,97,97,97,97,97,194,97,97,
97,97,193,97,97,97,97,97,97,97,97,97,97,97,97,97,97,97,97,97,97,97,97,97,97,97,97,97,97,194,97,97,
97,97,193,97,97,97,97,97,97,97,97,97,97,97,97,97,97,97,97,97,97,97,97,97,97,97,97,97,97,194,97,97,
97,97,193,97,97,97,97,97,97,97,97,97,97,97,97,97,97,97,97,97,97,97,97,97,97,97,97,97,97,194,97,97,
97,97,290,290,290,290,290,290,290,290,290,290,290,97,97,97,97,97,290,290,290,290,290,290,290,290,290,290,290,290,97,97,
97,97,97,97,97,97,97,97,97,97,97,97,241,97,97,97,97,97,242,97,97,97,97,97,97,97,97,97,97,97,97,97,
97,97,97,97,97,97,97,97,97,97,97,97,241,97,97,97,97,97,242,97,97,97,97,97,97,97,97,97,97,97,97,97,
97,97,97,97,97,97,97,97,97,97,97,97,241,97,97,97,97,97,242,97,97,97,97,97,97,97,97,97,97,97,97,97,
97,97,97,97,97,97,97,97,97,97,97,97,241,97,97,97,97,97,102,103,102,98,100,99,104,99,104,98,98,98,98,162,
97,97,97,97,97,97,97,97,97,97,97,97,241,97,97,97,97,97,97,97,97,97,97,97,97,97,97,97,97,97,97,194,
97,97,97,97,97,97,97,97,97,97,97,97,241,97,97,97,97,97,97,97,97,97,97,97,97,97,97,97,97,97,97,194,
97,97,97,97,97,97,97,97,97,97,97,97,241,97,97,97,97,97,97,97,97,97,97,97,97,97,97,97,97,97,97,194,
97,97,97,97,97,97,97,97,97,97,97,97,97,289,290,290,290,290,290,290,290,290,290,290,290,290,290,97,97,97,97,194,
97,97,97,97,97,97,97,97,97,97,97,97,97,97,97,97,97,97,97,97,97,97,97,97,97,97,194,97,97,97,97,194,
97,97,97,97,97,97,97,97,97,97,97,97,97,97,97,97,97,97,97,97,97,97,97,97,97,97,194,97,97,97,97,194
</data>
 </layer>
 <layer id="3" name="Props1" width="32" height="32">
  <data encoding="csv">
97,97,97,97,97,97,97,97,97,97,97,97,97,97,97,97,97,97,97,97,97,97,97,97,97,97,97,97,97,97,97,97,
97,97,97,97,97,97,97,97,97,97,97,97,355,97,97,97,97,97,354,97,97,97,97,97,97,97,97,97,97,97,97,97,
97,97,97,97,97,97,97,97,97,97,97,97,363,97,97,97,97,97,362,97,97,97,97,97,97,97,97,97,97,97,97,97,
97,97,97,97,97,97,97,97,97,97,97,97,371,97,97,97,97,97,370,97,97,97,97,97,97,97,97,97,97,97,97,97,
97,97,97,97,97,97,97,97,97,97,97,97,379,97,97,97,97,97,378,97,97,97,97,97,97,97,97,97,97,97,97,97,
97,97,97,97,97,97,97,97,97,97,97,97,97,97,97,97,97,97,97,97,97,97,97,97,97,97,97,97,97,97,97,97,
97,97,97,97,97,97,97,97,97,97,97,97,97,97,97,97,97,97,97,97,97,97,97,97,97,97,97,97,97,97,97,97,
97,97,97,97,97,97,97,97,97,97,97,97,97,97,97,97,97,97,97,97,97,97,97,97,97,97,97,97,97,97,97,97,
97,97,97,97,97,97,97,97,97,97,97,97,97,97,97,97,97,97,97,97,97,97,97,97,97,97,97,97,97,97,97,97,
97,97,97,97,97,97,97,97,97,97,97,97,355,97,97,97,97,97,354,97,97,97,97,97,97,97,97,97,97,97,97,97,
97,97,97,97,97,97,97,97,97,97,97,97,363,97,97,97,97,97,362,97,97,97,97,97,97,97,97,97,97,97,97,97,
97,97,97,97,97,97,97,97,97,97,97,97,371,97,97,97,97,97,370,97,97,97,97,97,97,97,97,97,97,97,97,97,
97,97,97,97,97,97,97,97,97,97,97,97,379,97,97,97,97,97,378,97,97,97,97,97,97,97,97,97,97,97,97,97,
97,97,97,97,97,97,97,97,97,97,97,97,97,97,97,97,97,97,97,97,97,97,97,97,97,97,97,97,97,97,97,97,
97,97,97,97,97,97,97,97,97,97,97,97,97,97,97,97,97,97,97,97,97,97,97,97,97,97,97,97,97,97,97,97,
97,97,97,97,97,97,97,97,97,97,97,97,97,97,97,97,97,97,97,97,97,97,97,97,97,97,97,97,97,97,97,97,
97,97,97,97,97,97,97,97,97,97,97,97,97,97,97,97,97,97,97,97,97,97,97,97,97,97,97,97,97,97,97,97,
97,97,97,97,97,97,97,97,97,97,97,97,355,97,97,97,97,97,354,97,97,97,97,97,97,97,97,97,97,97,97,97,
97,97,97,97,97,97,97,97,97,97,97,97,363,97,97,97,97,97,362,97,97,97,97,97,97,97,97,97,97,97,97,97,
97,97,97,97,97,97,97,97,97,97,97,97,371,97,97,97,97,97,370,97,97,97,97,97,97,97,97,97,97,97,97,97,
97,97,97,97,97,97,97,97,97,97,97,97,379,97,97,97,97,97,378,97,97,97,97,97,97,97,97,97,97,97,97,97,
97,97,97,97,97,97,97,97,97,97,97,97,241,97,97,97,97,97,242,97,97,97,97,97,97,97,97,97,97,97,97,97,
97,97,97,97,97,97,97,97,97,97,97,97,97,97,97,97,97,97,97,97,97,97,97,97,97,97,97,97,97,97,97,97,
97,97,97,97,97,97,97,97,97,97,97,97,97,97,97,97,97,97,97,97,97,97,97,97,97,97,97,97,97,97,97,97,
97,97,97,97,97,97,97,97,97,97,97,97,97,97,97,97,97,97,97,97,97,97,97,97,97,97,97,97,97,97,97,97,
97,97,97,97,97,97,97,97,97,97,97,97,97,97,97,97,97,97,97,97,97,97,97,97,97,97,97,97,97,97,97,97,
97,97,97,97,97,97,97,97,97,97,97,97,97,97,97,97,97,97,97,97,97,97,97,97,97,97,97,97,97,97,97,97,
97,97,97,97,97,97,97,97,97,97,97,97,97,97,97,97,97,97,97,97,97,97,97,97,97,97,97,97,97,97,97,97,
97,97,97,97,97,97,97,97,97,97,97,97,97,97,97,97,97,97,97,97,97,97,97,97,97,97,97,97,97,97,97,97,
97,97,97,97,97,97,97,97,97,97,97,97,97,97,97,97,97,97,97,97,97,97,97,97,97,97,194,97,97,97,97,97,
97,97,97,97,97,97,97,97,97,97,97,97,97,97,97,97,97,97,97,97,97,97,97,97,97,97,97,97,97,97,97,97,
97,97,97,97,97,97,97,97,97,97,97,97,97,97,97,97,97,97,97,97,97,97,97,97,97,97,97,97,97,97,97,97
</data>
 </layer>
 <objectgroup id="4" name="Waypoints" offsetx="-14" offsety="-14">
  <object id="1" x="878" y="1005" width="152" height="32">
   <properties>
    <property name="nextMapFileName" value="warrior_halls_2.json"/>
    <property name="xDest" type="int" value="940"/>
    <property name="yDest" type="int" value="60"/>
   </properties>
  </object>
  <object id="2" x="430.167" y="79.6667" width="159.5" height="32">
   <properties>
    <property name="nextMapFileName" value="warrior_halls_6.json"/>
    <property name="xDest" type="int" value="495"/>
    <property name="yDest" type="int" value="960"/>
   </properties>
  </object>
 </objectgroup>
</map>
