<?xml version="1.0" encoding="UTF-8"?>
<map version="1.10" tiledversion="1.10.2" orientation="orthogonal" renderorder="right-down" width="32" height="32" tilewidth="32" tileheight="32" infinite="0" nextlayerid="8" nextobjectid="9">
 <properties>
  <property name="id" type="int" value="4"/>
 </properties>
 <tileset firstgid="1" source="../Tilesets/Gray_Block_Walls.tsx"/>
 <tileset firstgid="257" source="../Tilesets/Gray_Block_Floor.tsx"/>
 <tileset firstgid="289" source="../Tilesets/Statues.tsx"/>
 <tileset firstgid="417" source="../Tilesets/Dungeon_Doors.tsx"/>
 <layer id="1" name="Floor" width="32" height="32">
  <data encoding="csv">
196,196,196,196,196,196,196,196,196,196,196,196,196,196,196,196,196,196,196,196,196,196,196,196,196,197,198,273,273,273,273,273,
196,196,196,196,196,196,196,196,196,196,196,196,196,196,196,196,196,196,196,196,199,198,196,196,196,200,196,274,274,275,260,275,
196,196,196,199,196,196,196,196,196,200,197,196,196,196,196,200,196,196,196,196,196,196,196,198,196,196,196,273,274,274,273,259,
196,196,196,196,196,196,196,196,196,196,196,196,196,196,196,196,196,196,196,199,196,196,196,196,196,196,196,275,273,273,273,259,
196,199,197,197,196,196,196,199,197,196,196,199,200,196,196,196,196,196,198,200,196,196,196,198,196,196,199,275,260,258,276,265,
196,196,196,196,196,196,196,196,196,196,196,196,196,196,196,196,196,196,196,196,196,196,196,196,196,196,200,259,259,274,275,276,
196,196,196,196,196,196,196,196,196,196,196,196,196,196,196,196,196,196,196,196,196,196,196,196,196,196,196,258,276,265,259,275,
275,260,273,276,265,275,275,265,258,258,273,265,260,265,265,275,259,258,273,265,259,273,259,259,275,258,273,260,265,259,265,274,
274,275,276,275,276,260,259,258,259,265,259,276,276,265,259,260,258,258,265,259,265,274,274,265,260,265,258,275,274,260,275,274,
275,275,276,273,274,259,258,273,275,273,276,274,276,274,276,258,258,265,265,275,258,276,273,273,260,275,275,273,260,265,275,273,
260,276,260,274,275,260,274,274,259,260,259,274,273,259,274,265,259,260,276,259,273,275,276,265,275,276,260,276,275,273,274,259,
265,276,274,265,273,276,274,259,273,258,260,259,276,273,260,275,274,259,265,273,259,259,265,259,273,274,275,275,275,276,273,259,
265,274,260,260,273,276,274,259,265,276,276,273,260,259,259,275,258,258,260,276,260,276,260,275,260,273,259,273,273,275,273,273,
275,276,260,260,275,273,273,265,275,260,273,274,276,273,273,273,273,273,273,273,275,275,275,274,273,260,276,275,265,265,260,259,
260,274,274,273,265,276,265,275,273,275,258,275,265,276,274,274,275,260,275,259,273,259,276,275,273,273,275,260,265,276,273,259,
273,273,276,274,273,258,276,276,274,258,273,265,259,273,273,274,274,273,259,258,273,265,273,259,259,273,273,258,275,258,274,273,
275,260,260,275,259,274,260,260,260,273,259,258,260,258,275,273,273,273,259,275,260,259,273,259,265,265,275,265,274,275,275,265,
275,276,276,275,260,274,260,258,276,275,274,276,275,274,275,260,258,276,265,265,260,265,265,259,274,273,275,275,273,258,276,273,
196,196,196,196,196,196,196,196,196,196,196,196,196,196,199,200,199,196,196,196,196,196,196,198,199,196,196,259,265,259,259,260,
196,200,197,198,196,197,198,196,196,196,196,196,196,197,196,196,199,196,196,196,198,196,196,198,196,196,198,260,274,265,276,276,
196,196,196,196,196,196,196,196,196,196,196,196,196,196,196,196,196,196,196,196,196,196,196,196,196,196,196,276,259,274,265,258,
196,196,196,196,196,196,196,196,196,196,196,196,196,196,196,196,196,196,196,196,196,196,196,196,196,196,196,259,275,276,259,260,
196,196,196,196,196,196,196,196,196,196,196,196,196,196,276,258,273,276,265,258,275,265,273,260,275,258,275,265,265,274,273,276,
196,196,196,196,196,196,196,196,196,196,196,196,196,196,265,258,258,259,260,273,275,275,260,259,275,273,275,273,276,273,258,265,
197,196,196,196,198,196,196,196,200,196,196,196,196,196,275,265,259,260,276,265,265,258,265,265,260,275,275,273,265,258,259,258,
196,196,200,196,196,196,196,200,196,196,196,196,196,199,265,276,273,273,274,258,258,258,260,260,260,265,275,260,265,274,273,259,
196,196,196,196,196,196,196,196,196,196,196,196,196,196,275,259,260,258,275,265,265,265,273,258,275,258,275,274,273,274,259,273,
196,196,196,196,196,196,199,196,196,196,196,196,196,196,265,265,265,276,273,196,197,196,196,196,197,196,196,196,196,196,196,196,
196,196,196,200,196,196,196,196,196,196,196,196,196,196,273,260,265,273,275,196,196,196,196,196,196,196,196,196,197,196,196,196,
196,196,196,196,196,196,196,196,196,196,196,196,196,196,258,275,260,273,259,197,196,196,196,196,196,196,196,196,196,196,196,196,
196,196,196,196,196,196,196,196,196,196,196,200,196,196,259,275,274,275,258,196,196,196,196,196,196,198,196,196,196,196,196,196,
196,196,196,196,196,196,196,196,196,196,196,196,196,198,275,259,275,274,274,196,200,196,196,196,196,196,196,196,196,196,196,196
</data>
 </layer>
 <layer id="2" name="Walls" width="32" height="32">
  <data encoding="csv">
49,49,49,49,49,49,49,49,49,49,49,49,49,49,49,49,49,49,49,49,49,49,49,49,49,49,49,97,49,49,49,98,
49,49,49,49,49,49,49,49,49,49,49,49,49,49,49,49,49,49,49,49,49,49,49,49,49,49,49,97,49,49,49,98,
49,49,49,49,49,49,49,49,49,49,49,49,49,49,49,49,49,49,49,49,49,49,49,49,49,49,49,97,49,49,49,98,
49,49,49,49,49,49,49,49,49,49,49,49,49,49,49,49,49,49,49,49,49,49,49,49,49,49,49,97,49,49,49,98,
49,49,49,49,49,49,49,49,49,49,49,49,49,49,49,49,49,49,49,49,49,49,49,49,49,49,49,97,49,49,49,98,
65,3,4,3,7,5,3,3,5,5,7,7,8,2,5,3,2,7,2,3,2,8,5,2,3,5,3,97,49,49,49,98,
81,35,38,38,36,35,35,36,35,38,36,34,34,33,35,34,38,33,33,36,36,36,33,33,33,33,33,97,49,49,49,98,
97,49,49,49,49,49,49,49,49,49,49,49,49,49,49,49,49,49,49,49,49,49,49,49,49,49,49,97,49,49,49,98,
97,49,49,49,49,49,49,49,49,49,49,49,49,49,49,49,49,49,49,49,49,49,49,49,49,49,49,97,49,49,49,98,
97,49,49,49,49,49,49,49,49,49,49,49,49,49,49,49,49,49,49,49,49,49,49,49,49,49,149,97,49,49,49,98,
97,49,49,49,49,49,49,49,49,49,49,49,49,49,49,49,49,49,49,49,49,49,49,49,49,49,165,166,49,49,49,98,
97,49,49,49,49,49,49,49,49,49,49,49,49,49,49,49,49,49,49,49,49,49,49,49,49,49,49,49,49,49,49,98,
97,49,49,49,49,49,49,49,49,49,49,49,49,49,49,49,49,49,49,49,49,49,49,49,49,49,49,49,49,49,49,98,
97,49,49,49,49,49,49,49,49,49,49,49,49,49,49,49,49,49,49,49,49,49,49,49,49,49,165,97,49,49,49,98,
97,49,49,49,49,49,49,49,49,49,49,49,49,49,49,49,49,49,49,49,49,49,49,49,49,49,49,97,49,49,49,98,
97,49,49,49,49,49,49,49,49,49,49,49,49,49,49,49,49,49,49,49,49,49,49,49,49,49,49,97,49,49,49,98,
97,49,49,49,49,49,49,49,49,49,49,49,49,49,49,49,49,49,49,49,49,49,49,49,49,49,49,97,49,49,49,98,
97,49,49,49,49,49,49,49,49,49,49,49,49,49,49,49,49,49,49,49,49,49,49,49,49,49,49,97,49,49,49,98,
195,195,193,195,195,194,194,194,194,195,193,194,195,194,194,193,193,194,194,195,194,193,193,194,195,195,195,97,49,49,49,98,
49,49,49,49,49,49,49,49,49,49,49,49,49,49,49,49,49,49,49,49,49,49,49,49,49,49,49,97,49,49,49,98,
49,49,49,49,49,49,49,49,49,49,49,49,49,49,65,2,7,6,40,8,7,8,5,6,2,40,6,97,49,49,49,98,
49,49,49,49,49,49,49,49,49,49,49,49,49,49,81,34,33,35,38,34,33,38,36,38,36,35,35,97,49,49,49,98,
49,49,49,49,49,49,49,49,49,49,49,49,49,49,97,49,49,49,49,49,49,49,49,49,49,49,49,49,49,49,49,98,
49,49,49,49,49,49,49,49,49,49,49,49,49,49,97,49,49,49,49,49,49,49,49,49,49,49,49,49,49,49,49,98,
49,49,49,49,49,49,49,49,49,49,49,49,49,49,97,49,49,49,49,49,49,49,49,49,49,49,49,49,49,49,49,49,
49,49,49,49,49,49,49,49,49,49,49,49,49,49,97,49,49,49,49,49,49,49,49,49,49,49,49,49,49,49,49,49,
49,49,49,49,49,49,49,49,49,49,49,49,49,49,97,49,49,49,49,49,49,49,49,49,49,49,49,49,49,49,49,49,
49,49,49,49,49,49,49,49,49,49,49,49,49,49,97,49,49,49,98,193,194,194,195,193,195,193,194,195,194,195,193,195,
49,49,49,49,49,49,49,49,49,49,49,49,49,49,97,49,49,49,98,49,49,49,49,49,49,49,49,49,49,49,49,49,
49,49,49,49,49,49,49,49,49,49,49,49,49,49,97,49,49,49,98,49,49,49,49,49,49,49,49,49,49,49,49,49,
49,49,49,49,49,49,49,49,49,49,49,49,49,49,97,49,49,49,98,49,49,49,49,49,49,49,49,49,49,49,49,49,
49,49,49,49,49,49,49,49,49,49,49,49,49,49,97,49,49,49,98,49,49,49,49,49,49,49,49,49,49,49,49,49
</data>
 </layer>
 <layer id="3" name="Props1" width="32" height="32">
  <data encoding="csv">
292,292,292,292,292,292,292,292,292,292,292,292,292,292,292,292,292,292,292,292,292,292,292,292,292,292,292,292,292,292,292,292,
292,292,292,292,292,292,292,292,292,292,292,292,292,292,292,292,292,292,292,292,292,292,292,292,292,292,292,292,292,292,292,292,
292,292,292,292,292,292,292,292,292,292,292,292,292,292,292,292,292,292,292,292,292,292,292,292,292,292,292,292,292,292,292,292,
292,292,292,292,292,292,292,292,292,292,292,292,292,292,292,292,292,292,292,292,292,292,292,292,292,292,292,292,292,292,292,292,
292,292,292,292,292,292,292,292,292,292,292,292,292,292,292,292,292,292,292,292,292,292,292,292,292,292,292,292,292,292,292,292,
292,292,292,292,292,292,292,292,292,292,292,292,292,292,292,292,292,292,292,292,292,292,292,292,292,292,292,292,292,292,292,292,
292,292,292,292,300,292,292,300,292,292,300,292,292,300,292,292,300,292,292,300,292,292,300,292,290,300,292,292,292,292,292,292,
292,292,292,292,308,292,292,308,292,292,308,292,292,308,292,292,308,292,292,308,292,292,308,292,298,308,292,292,292,292,292,292,
292,292,292,292,317,292,292,324,292,292,318,292,292,315,292,292,319,292,292,315,292,292,319,292,306,317,292,292,292,292,292,292,
292,292,292,292,292,292,292,292,292,292,292,292,292,292,292,292,292,292,292,292,292,292,292,292,314,292,292,292,292,292,292,292,
292,292,292,292,292,292,292,292,292,292,292,292,292,292,292,292,292,292,292,292,292,292,292,292,292,292,292,292,292,292,292,292,
292,292,292,292,292,292,292,292,292,292,292,292,292,292,292,292,292,292,292,292,292,292,292,292,292,292,292,292,292,292,292,292,
292,292,292,292,292,292,292,292,292,292,292,292,292,292,292,292,292,292,292,292,292,292,292,292,292,292,292,292,292,292,292,292,
292,292,292,292,292,292,292,292,292,292,292,292,292,292,292,292,292,292,292,292,292,292,292,292,290,292,292,292,292,292,292,292,
292,292,292,292,292,292,292,292,292,292,292,292,292,292,292,292,292,292,292,292,292,292,292,292,298,292,292,292,292,292,292,292,
292,292,292,292,292,292,292,292,292,292,292,292,292,292,292,292,292,292,292,292,292,292,292,292,306,292,292,292,292,292,292,292,
292,292,292,292,300,292,292,300,292,292,300,292,292,300,292,292,300,292,292,300,292,292,300,292,314,300,292,292,292,292,292,292,
292,292,292,292,308,292,292,308,292,292,308,292,292,308,292,292,308,292,292,308,292,292,308,292,292,308,292,292,292,292,292,292,
292,292,292,292,292,292,292,292,292,292,292,292,292,292,292,292,292,292,292,292,292,292,292,292,292,292,292,292,292,292,292,292,
292,292,292,292,292,292,292,292,292,292,292,292,292,292,292,292,292,292,292,292,292,292,292,292,292,292,292,292,292,292,292,292,
292,292,292,292,292,292,292,292,292,292,292,292,292,292,292,292,292,292,292,292,292,292,292,292,292,292,292,292,292,292,292,292,
292,292,292,292,292,292,292,292,292,292,292,292,292,292,292,292,292,292,292,292,292,292,292,292,292,292,292,292,292,292,292,292,
292,292,292,292,292,292,292,292,292,292,292,292,292,292,292,292,292,292,292,292,292,292,292,292,292,292,292,292,292,292,292,292,
292,292,292,292,292,292,292,292,292,292,292,292,292,292,292,292,292,292,292,292,292,292,292,292,292,292,292,292,292,292,292,292,
292,292,292,292,292,292,292,292,292,292,292,292,292,292,292,292,292,292,292,292,292,292,292,292,292,292,292,292,292,292,292,145,
292,292,292,292,292,292,292,292,292,292,292,292,292,292,292,292,292,292,292,292,292,292,292,292,292,292,292,292,292,292,292,145,
292,292,292,292,292,292,292,292,292,292,292,292,292,292,292,292,292,292,292,292,292,292,292,292,292,292,292,292,292,292,292,145,
292,292,292,292,292,292,292,292,292,292,292,292,292,292,292,292,292,292,292,292,292,292,292,292,292,292,292,292,292,292,292,292,
292,292,292,292,292,292,292,292,292,292,292,292,292,292,292,292,292,292,292,292,292,292,292,292,292,292,292,292,292,292,292,292,
292,292,292,292,292,292,292,292,292,292,292,292,292,292,292,292,292,292,292,292,292,292,292,292,292,292,292,292,292,292,292,292,
292,292,292,292,292,292,292,292,292,292,292,292,292,292,292,292,292,292,292,292,292,292,292,292,292,292,292,292,292,292,292,292,
292,292,292,292,292,292,292,292,292,292,292,292,292,292,292,292,292,292,292,292,292,292,292,292,292,292,292,292,292,292,292,292
</data>
 </layer>
 <objectgroup id="4" name="Waypoints">
  <object id="2" x="872" y="0" width="144" height="32">
   <properties>
    <property name="nextMapFileName" value="warrior_halls_2.json"/>
    <property name="xDest" type="int" value="945"/>
    <property name="yDest" type="int" value="960"/>
   </properties>
  </object>
  <object id="3" x="456" y="992" width="144" height="32">
   <properties>
    <property name="nextMapFileName" value="warrior_halls_4.json"/>
    <property name="xDest" type="int" value="526"/>
    <property name="yDest" type="int" value="112"/>
   </properties>
  </object>
 </objectgroup>
 <objectgroup id="5" name="Items">
  <object id="4" x="142.667" y="404">
   <properties>
    <property name="isPicked" type="bool" value="false"/>
    <property name="itemId" type="int" value="0"/>
   </properties>
   <point/>
  </object>
 </objectgroup>
 <objectgroup id="6" name="EnemiesSpawn">
  <object id="5" x="420" y="350">
   <properties>
    <property name="enemyId" type="int" value="0"/>
   </properties>
   <point/>
  </object>
  <object id="6" x="420" y="440">
   <properties>
    <property name="enemyId" type="int" value="0"/>
   </properties>
   <point/>
  </object>
  <object id="7" x="645" y="388">
   <properties>
    <property name="enemyId" type="int" value="0"/>
   </properties>
   <point/>
  </object>
 </objectgroup>
 <objectgroup id="7" name="Checkpoints">
  <object id="8" x="274" y="394">
   <properties>
    <property name="checkpointId" type="int" value="0"/>
    <property name="isActive" type="bool" value="false"/>
   </properties>
   <point/>
  </object>
 </objectgroup>
</map>
