<?xml version="1.0" encoding="UTF-8"?>
<map version="1.10" tiledversion="1.10.2" orientation="orthogonal" renderorder="right-down" width="32" height="32" tilewidth="32" tileheight="32" infinite="0" nextlayerid="4" nextobjectid="3">
 <tileset firstgid="1" source="../Tilesets/Gray_Block_Walls.tsx"/>
 <tileset firstgid="257" source="../Tilesets/Gray_Block_Floor.tsx"/>
 <layer id="1" name="Floor" width="32" height="32">
  <data encoding="csv">
196,196,196,196,196,196,196,196,196,196,196,196,196,283,284,283,281,282,196,196,196,196,196,196,196,196,196,196,196,196,196,196,
196,196,196,196,196,196,196,196,196,196,196,196,196,262,264,263,261,264,196,196,196,196,196,196,196,196,196,196,196,196,196,196,
196,196,196,196,196,196,196,196,196,196,196,196,196,258,273,267,258,274,196,196,196,196,196,196,196,196,196,196,196,196,196,196,
196,196,196,196,196,196,196,196,196,196,196,196,196,259,275,273,267,259,196,196,196,196,196,196,196,196,196,196,196,196,196,196,
196,196,196,196,196,196,196,196,196,196,196,196,196,274,276,268,260,275,196,196,196,196,196,196,196,196,196,196,196,196,196,196,
196,196,196,196,196,196,196,196,196,196,196,196,196,274,268,258,268,265,196,196,196,196,196,196,196,196,196,196,196,196,196,196,
196,196,196,196,196,196,196,196,196,196,196,196,196,273,273,267,274,266,196,196,196,196,196,196,196,196,196,196,196,196,196,196,
196,196,196,196,196,196,196,196,196,196,196,196,196,275,265,267,266,260,196,196,196,196,196,196,196,196,196,196,196,196,196,196,
196,196,196,196,196,196,196,196,196,196,196,196,196,275,265,265,276,276,196,196,196,196,196,196,196,196,196,196,196,196,196,196,
196,196,196,196,196,196,196,196,196,196,196,196,196,275,267,273,273,276,196,196,196,196,196,196,196,196,196,196,196,196,196,196,
196,196,196,196,196,196,196,196,196,196,196,196,196,265,273,273,259,274,196,196,196,196,196,196,196,196,196,196,196,196,196,196,
196,196,196,196,196,196,196,196,196,196,196,196,196,268,259,259,267,260,196,196,196,196,196,196,196,196,196,196,196,196,196,196,
196,196,196,196,196,196,196,196,196,196,196,196,196,268,268,265,260,259,196,196,196,196,196,196,196,196,196,196,196,196,196,196,
196,196,196,196,196,196,196,196,196,196,196,196,196,259,266,275,259,273,196,196,196,196,196,196,196,196,196,196,196,196,196,196,
196,196,196,196,196,196,196,196,196,196,196,196,196,273,275,273,275,273,196,196,196,196,196,196,196,196,196,196,196,196,196,196,
196,196,196,196,196,196,196,196,196,196,196,196,196,276,275,265,265,274,196,196,196,196,196,196,196,196,196,196,196,196,196,196,
196,196,196,196,196,196,196,196,196,196,196,196,196,258,276,274,268,258,196,196,196,196,196,196,196,196,196,196,196,196,196,196,
196,196,196,196,196,196,196,196,196,196,196,196,196,265,273,265,275,258,196,196,196,196,196,196,196,196,196,196,196,196,196,196,
196,196,196,196,196,196,196,196,196,196,196,196,196,273,260,274,267,265,196,196,196,196,196,196,196,196,196,196,196,196,196,196,
196,196,196,196,196,196,196,196,196,196,196,196,196,265,259,268,266,266,196,196,196,196,196,196,196,196,196,196,196,196,196,196,
196,196,196,196,196,196,196,196,196,196,196,196,196,275,276,266,260,268,196,196,196,196,196,196,196,196,196,196,196,196,196,196,
196,196,196,196,196,196,196,196,196,196,196,196,196,260,275,275,258,275,196,196,196,196,196,196,196,196,196,196,196,196,196,196,
196,196,196,196,196,196,196,196,196,196,196,196,196,266,275,258,268,268,196,196,196,196,196,196,196,196,196,196,196,196,196,196,
196,196,196,196,196,196,196,196,196,196,196,196,196,276,273,274,267,275,196,196,196,196,196,196,196,196,196,196,196,196,196,196,
196,196,196,196,196,196,196,196,196,196,196,196,196,265,268,268,267,258,196,196,196,196,196,196,196,196,196,196,196,196,196,196,
196,196,196,196,196,196,196,196,196,196,196,196,196,260,266,266,275,259,196,196,196,196,196,196,196,196,196,196,196,196,196,196,
196,196,196,196,196,196,196,196,196,196,196,196,196,268,275,275,273,274,196,196,196,196,196,196,196,196,196,196,196,196,196,196,
196,196,196,196,196,196,196,196,196,196,196,196,196,266,273,275,265,260,196,196,196,196,196,196,196,196,196,196,196,196,196,196,
196,196,196,196,196,196,196,196,196,196,196,196,196,266,275,273,266,259,196,196,196,196,196,196,196,196,196,196,196,196,196,196,
196,196,196,196,196,196,196,196,196,196,196,196,196,273,268,276,268,275,196,196,196,196,196,196,196,196,196,196,196,196,196,196,
196,196,196,196,196,196,196,196,196,196,196,196,196,266,276,259,265,266,196,196,196,196,196,196,196,196,196,196,196,196,196,196,
196,196,196,196,196,196,196,196,196,196,196,196,196,268,268,265,258,268,196,196,196,196,196,196,196,196,196,196,196,196,196,196
</data>
 </layer>
 <layer id="2" name="Walls" width="32" height="32">
  <data encoding="csv">
1,1,1,1,1,1,1,1,1,1,1,1,1,97,1,1,1,98,1,1,1,1,1,1,1,1,1,1,1,1,1,1,
1,1,1,1,1,1,1,1,1,1,1,1,1,97,1,1,1,98,1,1,1,1,1,1,1,1,1,1,1,1,1,1,
1,1,1,1,1,1,1,1,1,1,1,1,1,97,1,1,1,98,1,1,1,1,1,1,1,1,1,1,1,1,1,1,
1,1,1,1,1,1,1,1,1,1,1,1,1,97,1,1,1,98,1,1,1,1,1,1,1,1,1,1,1,1,1,1,
1,1,1,1,1,1,1,1,1,1,1,1,1,97,1,1,1,98,1,1,1,1,1,1,1,1,1,1,1,1,1,1,
1,1,1,1,1,1,1,1,1,1,1,1,1,97,1,1,1,98,1,1,1,1,1,1,1,1,1,1,1,1,1,1,
1,1,1,1,1,1,1,1,1,1,1,1,1,97,1,1,1,98,1,1,1,1,1,1,1,1,1,1,1,1,1,1,
1,1,1,1,1,1,1,1,1,1,1,1,1,97,1,1,1,98,1,1,1,1,1,1,1,1,1,1,1,1,1,1,
1,1,1,1,1,1,1,1,1,1,1,1,104,105,106,1,1,98,1,1,1,1,1,1,1,1,1,1,1,1,1,1,
1,1,1,1,1,1,1,1,1,1,1,1,120,121,122,1,1,98,1,1,1,1,1,1,1,1,1,1,1,1,1,1,
1,1,1,1,1,1,1,1,1,1,1,1,136,137,138,1,1,98,1,1,1,1,1,1,1,1,1,1,1,1,1,1,
1,1,1,1,1,1,1,1,1,1,1,1,152,153,154,1,1,98,1,1,1,1,1,1,1,1,1,1,1,1,1,1,
1,1,1,1,1,1,1,1,1,1,1,1,1,97,1,1,1,98,1,1,1,1,1,1,1,1,1,1,1,1,1,1,
1,1,1,1,1,1,1,1,1,1,1,1,1,97,1,1,1,98,1,1,1,1,1,1,1,1,1,1,1,1,1,1,
1,1,1,1,1,1,1,1,1,1,1,1,1,97,1,1,1,98,1,1,1,1,1,1,1,1,1,1,1,1,1,1,
1,1,1,1,1,1,1,1,1,1,1,1,1,97,1,1,1,98,1,1,1,1,1,1,1,1,1,1,1,1,1,1,
1,1,1,1,1,1,1,1,1,1,1,1,1,97,1,1,1,98,1,1,1,1,1,1,1,1,1,1,1,1,1,1,
1,1,1,1,1,1,1,1,1,1,1,1,1,97,1,1,1,98,1,1,1,1,1,1,1,1,1,1,1,1,1,1,
1,1,1,1,1,1,1,1,1,1,1,1,1,97,1,1,1,98,1,1,1,1,1,1,1,1,1,1,1,1,1,1,
1,1,1,1,1,1,1,1,1,1,1,1,1,97,1,1,1,98,1,1,1,1,1,1,1,1,1,1,1,1,1,1,
1,1,1,1,1,1,1,1,1,1,1,1,1,97,1,1,1,98,1,1,1,1,1,1,1,1,1,1,1,1,1,1,
1,1,1,1,1,1,1,1,1,1,1,1,1,97,1,1,1,98,1,1,1,1,1,1,1,1,1,1,1,1,1,1,
1,1,1,1,1,1,1,1,1,1,1,1,1,97,1,1,1,98,1,1,1,1,1,1,1,1,1,1,1,1,1,1,
1,1,1,1,1,1,1,1,1,1,1,1,1,97,1,1,1,98,1,1,1,1,1,1,1,1,1,1,1,1,1,1,
1,1,1,1,1,1,1,1,1,1,1,1,1,97,1,1,1,98,1,1,1,1,1,1,1,1,1,1,1,1,1,1,
1,1,1,1,1,1,1,1,1,1,1,1,1,97,1,1,1,98,1,1,1,1,1,1,1,1,1,1,1,1,1,1,
1,1,1,1,1,1,1,1,1,1,1,1,1,97,1,1,1,98,1,1,1,1,1,1,1,1,1,1,1,1,1,1,
1,1,1,1,1,1,1,1,1,1,1,1,1,97,1,1,1,98,1,1,1,1,1,1,1,1,1,1,1,1,1,1,
1,1,1,1,1,1,1,1,1,1,1,1,1,97,1,1,1,98,1,1,1,1,1,1,1,1,1,1,1,1,1,1,
1,1,1,1,1,1,1,1,1,1,1,1,1,97,1,1,1,98,1,1,1,1,1,1,1,1,1,1,1,1,1,1,
1,1,1,1,1,1,1,1,1,1,1,1,1,97,1,1,1,98,1,1,1,1,1,1,1,1,1,1,1,1,1,1,
1,1,1,1,1,1,1,1,1,1,1,1,1,97,1,1,1,98,1,1,1,1,1,1,1,1,1,1,1,1,1,1
</data>
 </layer>
 <objectgroup id="3" name="Waypoints">
  <object id="1" x="416.667" y="992" width="157.667" height="31.6667">
   <properties>
    <property name="nextMapFileName" value="warrior_halls_5.json"/>
    <property name="xDest" type="int" value="510"/>
    <property name="yDest" type="int" value="140"/>
   </properties>
  </object>
  <object id="2" x="416" y="0.333333" width="159" height="30.6667">
   <properties>
    <property name="nextMapFileName" value="warrior_halls_7.json"/>
    <property name="xDest" type="int" value="510"/>
    <property name="yDest" type="int" value="965"/>
   </properties>
  </object>
 </objectgroup>
</map>
